X:5092
T:De Selby's Reel
M:4/4
R:Reel
L:1/8
Q:180
C:Aidan Crossey
K:D
|:DFEF dFEF|AFEF ABcd|DFEF dFEF|ABAF E2D2:||
|ABcA dAFA|GBFA E2A2|ABcA dAFA|GFEF DEFG|
ABcA dAFA|GBFA E2A2|ABcA dAFA|GFEF D4||
